assets/img/icons/duotone-icons/Communication/Mail-heart.svg

<?xml version="1.0" encoding="UTF-8"?>
<svg width="24px" height="24px" viewBox="0 0 24 24" version="1.1" xmlns="http://www.w3.org/2000/svg" xmlns:xlink="http://www.w3.org/1999/xlink">
    <!-- Generator: Sketch 52.2 (67145) - http://www.bohemiancoding.com/sketch -->
    <title>Stockholm-icons / Communication / Mail-heart</title>
    <desc>Created with Sketch.</desc>
    <g id="Stockholm-icons-/-Communication-/-Mail-heart" stroke="none" stroke-width="1" fill="none" fill-rule="evenodd">
        <rect id="bound" x="0" y="0" width="24" height="24"></rect>
        <path d="M6,2 L18,2 C18.5522847,2 19,2.44771525 19,3 L19,13 C19,13.5522847 18.5522847,14 18,14 L6,14 C5.44771525,14 5,13.5522847 5,13 L5,3 C5,2.44771525 5.44771525,2 6,2 Z M13.8,4 C13.1562,4 12.4033,4.72985286 12,5.2 C11.5967,4.72985286 10.8438,4 10.2,4 C9.0604,4 8.4,4.88887193 8.4,6.02016349 C8.4,7.27338783 9.6,8.6 12,10 C14.4,8.6 15.6,7.3 15.6,6.1 C15.6,4.96870845 14.9396,4 13.8,4 Z" id="Combined-Shape" fill="#335EEA" opacity="0.3"></path>
        <path d="M3.79274528,6.57253826 L12,12.5 L20.2072547,6.57253826 C20.4311176,6.4108595 20.7436609,6.46126971 20.9053396,6.68513259 C20.9668779,6.77033951 21,6.87277228 21,6.97787787 L21,17 C21,18.1045695 20.1045695,19 19,19 L5,19 C3.8954305,19 3,18.1045695 3,17 L3,6.97787787 C3,6.70173549 3.22385763,6.47787787 3.5,6.47787787 C3.60510559,6.47787787 3.70753836,6.51099993 3.79274528,6.57253826 Z" id="Combined-Shape" fill="#335EEA"></path>
    </g>
</svg>

<svg width="24" height="24" viewBox="0 0 24 24" xmlns="http://www.w3.org/2000/svg"><g fill="none" fill-rule="evenodd"><path d="M0 0h24v24H0z"/><path d="M6 2h12a1 1 0 011 1v10a1 1 0 01-1 1H6a1 1 0 01-1-1V3a1 1 0 011-1zm7.8 2c-.644 0-1.397.73-1.8 1.2-.403-.47-1.156-1.2-1.8-1.2-1.14 0-1.8.889-1.8 2.02C8.4 7.273 9.6 8.6 12 10c2.4-1.4 3.6-2.7 3.6-3.9 0-1.131-.66-2.1-1.8-2.1z" fill="#335EEA" opacity=".3"/><path d="M3.793 6.573L12 12.5l8.207-5.927a.5.5 0 01.793.405V17a2 2 0 01-2 2H5a2 2 0 01-2-2V6.978a.5.5 0 01.793-.405z" fill="#335EEA"/></g></svg>
